X:140
T:score222
L:1/8
Q:1/4=96
M:2/4
I:linebreak $
K:Bb
 F | FB Ae | d/f/d/B/ Fd | c>A B z | z2 z F | FB Ae |$ d/f/d/B/ Fd | c>A B z |] %8
